src/shared/assets/icons/vk-circle.svg

<svg width="32" height="32" viewBox="0 0 32 32" fill="none" xmlns="http://www.w3.org/2000/svg">
<g id="VK" clip-path="url(#clip0_7533_60732)">
<g id="SVGRepo_iconCarrier">
<path id="Vector" d="M16.0006 0.640625C7.51743 0.640625 0.640625 7.51743 0.640625 16.0006C0.640625 24.4838 7.51743 31.3606 16.0006 31.3606C24.4838 31.3606 31.3606 24.4838 31.3606 16.0006C31.3606 7.51743 24.4838 0.640625 16.0006 0.640625ZM21.9078 17.9702C21.9078 17.9702 23.2662 19.311 23.6006 19.9334C23.6102 19.9462 23.615 19.959 23.6182 19.9654C23.7542 20.1942 23.7862 20.3718 23.719 20.5046C23.607 20.7254 23.223 20.8342 23.0918 20.8438H20.6918C20.5254 20.8438 20.1766 20.8006 19.7542 20.5094C19.4294 20.2822 19.1094 19.9094 18.7974 19.5462C18.3318 19.0054 17.9286 18.5382 17.5222 18.5382C17.4706 18.5381 17.4193 18.5462 17.3702 18.5622C17.063 18.6614 16.6694 19.0998 16.6694 20.2678C16.6694 20.6326 16.3814 20.8422 16.1782 20.8422H15.079C14.7046 20.8422 12.7542 20.711 11.0262 18.8886C8.91102 16.6566 7.00702 12.1798 6.99102 12.1382C6.87102 11.8486 7.11902 11.6934 7.38942 11.6934H9.81342C10.1366 11.6934 10.2422 11.8902 10.3158 12.0646C10.4022 12.2678 10.719 13.0758 11.239 13.9846C12.0822 15.4662 12.599 16.0678 13.0134 16.0678C13.0911 16.0669 13.1674 16.0471 13.2358 16.0102C13.7766 15.7094 13.6758 13.7814 13.6518 13.3814C13.6518 13.3062 13.6502 12.519 13.3734 12.1414C13.175 11.8678 12.8374 11.7638 12.6326 11.7254C12.7155 11.611 12.8247 11.5183 12.951 11.455C13.3222 11.2694 13.991 11.2422 14.655 11.2422H15.0246C15.7446 11.2518 15.9302 11.2982 16.191 11.3638C16.719 11.4902 16.7302 11.831 16.6838 12.9974C16.6694 13.3286 16.655 13.703 16.655 14.1446C16.655 14.2406 16.6502 14.343 16.6502 14.4518C16.6342 15.0454 16.615 15.719 17.0342 15.9958C17.0889 16.0301 17.1521 16.0484 17.2166 16.0486C17.3622 16.0486 17.8006 16.0486 18.9878 14.0118C19.354 13.3562 19.6721 12.675 19.9398 11.9734C19.9638 11.9318 20.0342 11.8038 20.1174 11.7542C20.1788 11.7229 20.2469 11.707 20.3158 11.7078H23.1654C23.4758 11.7078 23.6886 11.7542 23.7286 11.8742C23.799 12.0646 23.7158 12.6454 22.415 14.407L21.8342 15.1734C20.655 16.719 20.655 16.7974 21.9078 17.9702Z" fill="#C2C2BE"/>
</g>
</g>
<defs>
<clipPath id="clip0_7533_60732">
<rect width="32" height="32" fill="white"/>
</clipPath>
</defs>
</svg>

<svg width="32" height="32" fill="none" xmlns="http://www.w3.org/2000/svg">
    <path d="M16 .64C7.518.64.64 7.518.64 16c0 8.484 6.877 15.36 15.36 15.36 8.484 0 15.36-6.876 15.36-15.36C31.36 7.518 24.485.64 16 .64zm5.908 17.33s1.358 1.341 1.693 1.963c.01.013.014.026.017.032.136.23.168.407.101.54-.112.22-.496.33-.627.339h-2.4c-.167 0-.515-.043-.938-.335-.325-.227-.645-.6-.957-.963-.465-.54-.868-1.008-1.275-1.008a.488.488 0 0 0-.152.024c-.307.1-.7.538-.7 1.706 0 .365-.289.574-.492.574H15.08c-.374 0-2.325-.131-4.053-1.953-2.115-2.232-4.019-6.71-4.035-6.75-.12-.29.128-.446.398-.446h2.424c.324 0 .43.197.503.372.086.203.403 1.01.923 1.92.843 1.481 1.36 2.083 1.774 2.083a.48.48 0 0 0 .223-.058c.54-.3.44-2.229.416-2.629 0-.075-.002-.862-.279-1.24-.198-.273-.536-.377-.74-.416a.88.88 0 0 1 .318-.27c.371-.186 1.04-.213 1.704-.213h.37c.72.01.905.056 1.166.122.528.126.54.467.493 1.633-.015.332-.029.706-.029 1.148 0 .096-.005.198-.005.307-.016.593-.035 1.267.384 1.544a.345.345 0 0 0 .183.053c.145 0 .584 0 1.77-2.037a15.54 15.54 0 0 0 .953-2.039c.024-.041.094-.17.177-.219a.426.426 0 0 1 .199-.046h2.85c.31 0 .523.046.563.166.07.19-.013.771-1.314 2.533l-.58.766c-1.18 1.546-1.18 1.624.073 2.797z"
          fill="#C2C2BE"/>
</svg>
